src/icons/svg/chevron-up.svg

<svg width="20" height="20" fill="none" xmlns="http://www.w3.org/2000/svg"><path d="M9.75 7.564c-.189.089-4.728 4.638-4.799 4.81a.56.56 0 0 0 .012.476c.073.159.147.23.312.299a.546.546 0 0 0 .451 0c.086-.036.754-.681 2.199-2.125L10 8.95l2.075 2.074c1.445 1.444 2.113 2.089 2.199 2.125a.56.56 0 0 0 .476-.012.508.508 0 0 0 .299-.312.546.546 0 0 0 0-.451c-.071-.172-4.61-4.721-4.799-4.81a.724.724 0 0 0-.25-.063.724.724 0 0 0-.25.063" fill="#19191C" fill-rule="evenodd"/></svg>

<svg width="20" height="20" viewBox="0 0 20 20" fill="none" xmlns="http://www.w3.org/2000/svg"><path d="M9.750 7.564 C 9.561 7.653,5.022 12.202,4.951 12.374 C 4.884 12.537,4.888 12.686,4.963 12.850 C 5.036 13.009,5.110 13.080,5.275 13.149 C 5.431 13.214,5.569 13.214,5.726 13.149 C 5.812 13.113,6.480 12.468,7.925 11.024 L 10.000 8.950 12.075 11.024 C 13.520 12.468,14.188 13.113,14.274 13.149 C 14.437 13.216,14.586 13.212,14.750 13.137 C 14.909 13.064,14.980 12.990,15.049 12.825 C 15.114 12.669,15.114 12.531,15.049 12.374 C 14.978 12.202,10.439 7.653,10.250 7.564 C 10.177 7.530,10.064 7.501,10.000 7.501 C 9.936 7.501,9.823 7.530,9.750 7.564 " fill="#19191C" stroke="none" fill-rule="evenodd"></path></svg>
